X:0
T:Sunrise Swing
M:C
C:© Paul Gitlitz 2007
R:Swing
K:C
"C6"EF G2 "Am7"c3c|"Dm7"cdc2"G7"B3B|"Dm7"DFA2"G9"cB2A|"G7"BA2G "C6"E4|!
"C6"EF G2 "Am7"c3c|"C6"c2de "F6" f4|"Dm7"fed2 "C6"edc2|"G7"dcB2 "C6"c4:|!
|:"C6"Ge2G "Emb5"e4|"A7"e2fe "G7"d4|"Dm7"Fd2F "G7"ded2|dcB2 "C6"c4|!
"C6"Ge2G "Emb5"e4|"A7"e2fg "F6"a4|"Dm7"fed2 "C6"edc2|"G7"dcB2 "C6"c4:|]
